resources/svg/phone-find-fill.svg

<svg fill="currentColor" viewBox="0 0 24 24" xmlns="http://www.w3.org/2000/svg"><path d="M18 2C18.5523 2 19 2.44772 19 3L19.0009 11.5286C17.9393 10.578 16.5371 10 15 10C11.6863 10 9 12.6863 9 16C9 19.2384 11.76 22 15 22H6C5.44772 22 5 21.5523 5 21V3C5 2.44772 5.44772 2 6 2H18ZM15 12C17.2091 12 19 13.7909 19 16C19 16.7418 18.7981 17.4365 18.4462 18.032L20.6569 20.2426L19.2426 21.6569L17.032 19.4462C16.4365 19.7981 15.7418 20 15 20C12.7909 20 11 18.2091 11 16C11 13.7909 12.7909 12 15 12ZM15 14C13.8954 14 13 14.8954 13 16C13 17.1046 13.8954 18 15 18C16.1046 18 17 17.1046 17 16C17 14.8954 16.1046 14 15 14Z"/></svg>

<svg xmlns="http://www.w3.org/2000/svg" viewBox="0 0 24 24" fill="currentColor">
    <g>
        <path fill="none" d="M0 0h24v24H0z"/>
        <path d="M18 2a1 1 0 0 1 1 1v8.529A6 6 0 0 0 9 16c0 3.238 2.76 6 6 6H6a1 1 0 0 1-1-1V3a1 1 0 0 1 1-1h12zm-3 10a4 4 0 0 1 3.446 6.032l2.21 2.21-1.413 1.415-2.211-2.21A4 4 0 1 1 15 12zm0 2a2 2 0 1 0 0 4 2 2 0 0 0 0-4z"/>
    </g>
</svg>
